X: 40147
T: Till Jamie Comes Hame
R: waltz
M: 3/4
K: Eminor
|E/F/|G>FE|DB,A,|B,E>D|E2E/F/|G>AB|dBA|G>AB|A2E/F/|
G>AB|dBA|G>AB|D2B/A/|G>FE|DB,A,|B,>ED|E2|
E/F/|GB,B,|DB,B,|GB,B,|D2E/F/|G>FE|DB,A,|B,ED|E2E/F/|
GB,B,|DB,B,|GB,B,|D2B/A/|G>FE|DB,A,|B,ED|E2|

